misc/dist/document_icons/project_extra_small.svg

<svg xmlns="http://www.w3.org/2000/svg" width="16" height="16"><path fill="#eff1f5" stroke="#9f9fa1" stroke-linecap="round" stroke-linejoin="round" d="m12.698 4.59c-.368-.508-2.218-.623-3.086-.546.034-1.064.492-1.839-.593-2.766m-6.49-.51h4.721c1.205-.032 1.977.591 2.788 1.326l1.932 1.716c.998.89 1.393 1.729 1.5 2.94v8.483h-10.94z"/><g stroke-width=".32"><path fill="#fff" d="m12.062 10.583s-.014-.083-.022-.082l-1.502.145a.244.244 0 0 0 -.22.226l-.042.592-1.162.083-.079-.536a.246.246 0 0 0 -.242-.21h-1.585c-.12 0-.225.09-.243.21l-.079.536-1.162-.083-.041-.592a.244.244 0 0 0 -.22-.226l-1.505-.146c-.007-.001-.013.082-.02.082l-.003.325 1.273.205.042.597c.008.12.105.218.226.227l1.6.114h.019c.12 0 .224-.089.242-.208l.081-.552h1.163l.08.552a.246.246 0 0 0 .26.208l1.601-.114a.246.246 0 0 0 .227-.227l.042-.597 1.272-.206z"/><path fill="#478cbf" d="m3.938 8.132v2.45l.013.001 1.503.145c.078773.0076.1405059.07105.146.15l.046.663 1.311.094.09-.612c.01187-.07924.079879-.137895.16-.138h1.586c.080121.000105.1481303.05876.16.138l.09.612 1.311-.094.046-.663c.0055-.07895.06723-.142375.146-.15l1.502-.145h.014v-2.451c.22118-.2597567.402804-.5673567.566-.808-.236303-.3914463-.514617-.7559371-.83-1.087-.283508.1437236-.558316.3040004-.823.48-.13-.13-.278-.237-.422-.348-.143-.115-.303-.198-.455-.296.044019-.3366902.069724-.6755224.077-1.015-.392294-.1911688-.8067944-.3329185-1.234-.422-.1691916.2883902-.3217734.5862085-.457.892-.158761-.0253078-.3192359-.0383464-.48-.039h-.004-.003c-.16.002-.32.012-.48.039-.135411-.3058816-.288331-.6037083-.458-.892-.4268603.0891708-.841019.2309186-1.233.422.009.346.031.678.076 1.015-.152.098-.312.181-.454.296-.145.11-.292.217-.423.347-.264694-.1756817-.5395029-.3356251-.823-.479-.307.331-.595.688-.83 1.087.1718588.2982703.3967405.5717122.566.808z"/><path fill="#478cbf" d="m10.714 11.037-.047.667a.162.162 0 0 1 -.15.15l-1.6.114a.162.162 0 0 1 -.172-.137l-.092-.623h-1.306l-.092.623a.162.162 0 0 1 -.171.137l-1.6-.114a.162.162 0 0 1 -.15-.15l-.047-.667-1.351-.13.002.336c0 1.427 1.81 2.113 4.06 2.12h.005c2.25-.007 4.059-.693 4.059-2.12l.002-.336z"/><path fill="#fff" d="m6.776 9.127a.905.905 0 1 1 -1.811 0 .905.905 0 0 1 1.81 0"/><path fill="#414042" d="m6.558 9.18a.6.6 0 1 1 -1.202 0 .6.6 0 0 1 1.202 0"/><path fill="#fff" d="m8 10.115c-.16 0-.291-.119-.291-.265v-.834c0-.146.13-.265.291-.265s.292.119.292.265v.834c0 .146-.13.265-.292.265m1.225-.988a.906.906 0 1 0 1.81 0 .906.906 0 0 0 -1.81 0"/><path fill="#414042" d="m9.443 9.18a.6.6 0 1 0 1.201 0 .6.6 0 0 0 -1.201 0"/></g></svg>

<svg xmlns="http://www.w3.org/2000/svg" xmlns:xlink="http://www.w3.org/1999/xlink" width="16" height="16"><defs><filter id="a" width="1.076" height="1.057" x="-.041" y="-.026" color-interpolation-filters="sRGB"><feFlood flood-color="#000" flood-opacity=".502" result="flood"/><feGaussianBlur in="SourceGraphic" result="blur" stdDeviation="10"/><feOffset dx="-4" dy="4" in="blur" result="offset"/><feComposite in="flood" in2="offset" operator="in" result="comp1"/><feComposite in="SourceGraphic" in2="comp1" result="comp2"/></filter><filter id="b" width="2.262" height="2.261" x="-.68" y="-.582" color-interpolation-filters="sRGB"><feFlood flood-color="#000" flood-opacity=".4" result="flood"/><feGaussianBlur in="SourceGraphic" result="blur" stdDeviation="40"/><feOffset dx="-20" dy="20" in="blur" result="offset"/><feComposite in="flood" in2="offset" operator="in" result="comp1"/><feComposite in="SourceGraphic" in2="comp1" result="fbSourceGraphic"/><feColorMatrix in="fbSourceGraphic" result="fbSourceGraphicAlpha" values="0 0 0 -1 0 0 0 0 -1 0 0 0 0 -1 0 0 0 0 1 0"/><feFlood flood-color="#000" flood-opacity=".2" result="flood"/><feGaussianBlur in="fbSourceGraphic" result="blur" stdDeviation="20"/><feOffset dx="-4" dy="4" in="blur" result="offset"/><feComposite in="flood" in2="offset" operator="in" result="comp1"/><feComposite in="fbSourceGraphic" in2="comp1" result="comp2"/></filter></defs><path fill="#fff" d="m 193,58 c -13.85,-6.8e-5 -25,11.15 -25,25 v 858 c 0,13.85 11.15,25 25,25 h 638 c 13.85,0 25,-11.15 25,-25 0,0 -0.004,-609.40334 -0.006,-609.40434 -0.0115,-0.5396 -0.48983,-11.63499 -6.79883,-23.10888 L 727.16587,186.28218 607.13658,66.07759 C 600.03311,60.161839 590.4778,58.524457 581.41002,58.0019 Z" filter="url(#a)" transform="scale(.01563)"/><path fill="#fff" d="m 603.10742,63.296875 c -6.47611,-3.68445 -14.251,-4.865809 -21.69726,-5.294922 L 193,58 c -13.85,-6.8e-5 -25,11.15 -25,25 v 858 c 0,13.85 11.15,25 25,25 h 638 c 13.85,0 25,-11.15 25,-25 0,0 -0.004,-609.4033 -0.006,-609.4043 -0.0108,-0.50492 -0.43123,-10.25259 -5.6543,-20.90429 H 628.10742 c -13.85,0 -25,-11.15 -25,-25 z" transform="scale(.01563)"/><path fill="#fff" d="M 603.10742,63.296875 V 285.69141 c 0,13.85 11.15,25 25,25 h 222.23242 c -0.35869,-0.73152 -0.7391,-1.46774 -1.14453,-2.20508 L 727.16602,186.28125 607.13672,66.078125 c -1.27025,-1.057863 -2.61905,-1.978917 -4.0293,-2.78125 z" filter="url(#b)" transform="scale(.01563)"/><path fill="none" d="M0 0H1024V1024H0z" transform="scale(.01563)"/><g stroke-width=".32"><path fill="#fff" d="m 12.062,10.583 c 0,0 -0.014,-0.083 -0.022,-0.082 l -1.502,0.145 a 0.244,0.244 0 0 0 -0.22,0.226 L 10.276,11.464 9.114,11.547 9.035,11.011 A 0.246,0.246 0 0 0 8.793,10.801 H 7.208 c -0.12,0 -0.225,0.09 -0.243,0.21 L 6.886,11.547 5.724,11.464 5.683,10.872 A 0.244,0.244 0 0 0 5.463,10.646 L 3.958,10.5 c -0.007,-10e-4 -0.013,0.082 -0.02,0.082 l -0.003,0.325 1.273,0.205 0.042,0.597 c 0.008,0.12 0.105,0.218 0.226,0.227 l 1.6,0.114 h 0.019 c 0.12,0 0.224,-0.089 0.242,-0.208 L 7.418,11.29 h 1.163 l 0.08,0.552 a 0.246,0.246 0 0 0 0.26,0.208 l 1.601,-0.114 a 0.246,0.246 0 0 0 0.227,-0.227 l 0.042,-0.597 1.272,-0.206 z" transform="translate(0 .364)"/><path fill="#478cbf" d="m 3.938,8.132 v 2.45 l 0.013,10e-4 1.503,0.145 c 0.078773,0.0076 0.1405059,0.07105 0.146,0.15 l 0.046,0.663 1.311,0.094 0.09,-0.612 c 0.01187,-0.07924 0.079879,-0.137895 0.16,-0.138 h 1.586 c 0.080121,1.05e-4 0.1481303,0.05876 0.16,0.138 l 0.09,0.612 1.311,-0.094 0.046,-0.663 c 0.0055,-0.07895 0.06723,-0.142375 0.146,-0.15 l 1.502,-0.145 h 0.014 V 8.132 C 12.28318,7.8722433 12.464804,7.5646433 12.628,7.324 12.391697,6.9325537 12.113383,6.5680629 11.798,6.237 11.514492,6.3807236 11.239684,6.5410004 10.975,6.717 10.845,6.587 10.697,6.48 10.553,6.369 10.41,6.254 10.25,6.171 10.098,6.073 10.142019,5.7363098 10.167724,5.3974776 10.175,5.058 9.782706,4.8668312 9.3682056,4.7250815 8.941,4.636 8.7718084,4.9243902 8.6192266,5.2222085 8.484,5.528 8.325239,5.5026922 8.1647641,5.4896536 8.004,5.489 H 8 7.997 C 7.837,5.491 7.677,5.501 7.517,5.528 7.381589,5.2221184 7.228669,4.9242917 7.059,4.636 6.6321397,4.7251708 6.217981,4.8669186 5.826,5.058 5.835,5.404 5.857,5.736 5.902,6.073 5.75,6.171 5.59,6.254 5.448,6.369 5.303,6.479 5.156,6.586 5.025,6.716 4.760306,6.5403183 4.4854971,6.3803749 4.202,6.237 3.895,6.568 3.607,6.925 3.372,7.324 3.5438588,7.6222703 3.7687405,7.8957122 3.938,8.132 Z" transform="translate(0 .364)"/><path fill="#478cbf" d="m 10.714,11.037 -0.047,0.667 a 0.162,0.162 0 0 1 -0.15,0.15 l -1.6,0.114 A 0.162,0.162 0 0 1 8.745,11.831 L 8.653,11.208 H 7.347 l -0.092,0.623 a 0.162,0.162 0 0 1 -0.171,0.137 l -1.6,-0.114 a 0.162,0.162 0 0 1 -0.15,-0.15 l -0.047,-0.667 -1.351,-0.13 0.002,0.336 c 0,1.427 1.81,2.113 4.06,2.12 h 0.005 c 2.25,-0.007 4.059,-0.693 4.059,-2.12 l 0.002,-0.336 z" transform="translate(0 .364)"/><path fill="#fff" d="m 6.776,9.127 a 0.9055,0.9055 0 1 1 -1.811,0 0.905,0.905 0 0 1 1.81,0" transform="translate(0 .364)"/><path fill="#414042" d="m 6.558,9.18 a 0.601,0.601 0 1 1 -1.202,0 0.601,0.601 0 0 1 1.202,0" transform="translate(0 .364)"/><path fill="#fff" d="M 8,10.115 C 7.84,10.115 7.709,9.996 7.709,9.85 V 9.016 C 7.709,8.87 7.839,8.751 8,8.751 c 0.161,0 0.292,0.119 0.292,0.265 V 9.85 c 0,0.146 -0.13,0.265 -0.292,0.265 M 9.225,9.127 a 0.906,0.906 0 1 0 1.81,0 0.906,0.906 0 0 0 -1.81,0" transform="translate(0 .364)"/><path fill="#414042" d="m 9.443,9.18 a 0.6005,0.6005 0 1 0 1.201,0 0.6005,0.6005 0 0 0 -1.201,0" transform="translate(0 .364)"/></g></svg>
